fs/puzzle_cube_piece_20_filled.svg

<svg viewBox="0 0 20 20" fill="none" xmlns="http://www.w3.org/2000/svg" height="1em" width="1em">
  <path d="M15.7938 1.29002C16.1844 0.8995 16.8175 0.8995 17.208 1.29002L18.7109 2.79292C19.1015 3.18344 19.1015 3.81661 18.7109 4.20713L17.208 5.71002C16.8175 6.10055 16.1844 6.10055 15.7938 5.71002L14.2909 4.20713C13.9004 3.81661 13.9004 3.18344 14.2909 2.79292L15.7938 1.29002ZM5.5 17H7V13H3V14.5C3 15.8807 4.11929 17 5.5 17ZM7 8V12H3V8H7ZM12 12H8V8H12V12ZM8 13H12V17H8V13ZM13 8V12H17V8H13ZM13 13H17V14.5C17 15.8807 15.8807 17 14.5 17H13V13ZM3 7H7V3H5.5C4.11929 3 3 4.11929 3 5.5V7ZM8 7V3H12V7H8Z" fill="#212121"/>
</svg>

<svg viewBox="0 0 20 20" fill="none" xmlns="http://www.w3.org/2000/svg" height="1em" width="1em">
  <path d="M15.794 1.29a1 1 0 0 1 1.414 0l1.503 1.503a1 1 0 0 1 0 1.414L17.208 5.71a1 1 0 0 1-1.414 0L14.29 4.207a1 1 0 0 1 0-1.414l1.503-1.503ZM5.5 17H7v-4H3v1.5A2.5 2.5 0 0 0 5.5 17ZM7 8v4H3V8h4Zm5 4H8V8h4v4Zm-4 1h4v4H8v-4Zm5-5v4h4V8h-4Zm0 5h4v1.5a2.5 2.5 0 0 1-2.5 2.5H13v-4ZM3 7h4V3H5.5A2.5 2.5 0 0 0 3 5.5V7Zm5 0V3h4v4H8Z" fill="#212121"/>
</svg>
